src/assets/musicfile.svg

<svg width="16" height="16" viewBox="0 0 16 16" fill="none" xmlns="http://www.w3.org/2000/svg">
<g id="material-symbols:folder-open-outline">
<path id="Vector" d="M2.15301 13C1.98823 13 1.64528 12.8633 1.38746 12.59C1.1292 12.3163 1 11.7778 1.00007 11.6032L1 3.22222C1 3.04762 1.12913 2.68398 1.38739 2.41067C1.6452 2.13689 1.98823 2 2.15301 2H6.10586L7.4235 3.39683H12.6941C13.0564 3.39683 13.4477 3.61955 13.625 3.80749C13.7797 3.97156 14.0118 4.23492 14.0118 4.61905H6.88004L5.5624 3.22222H2.15301V11.6032L3.73418 6.01587H15L13.3035 12.0048C13.2157 12.3074 13.0538 12.5491 12.818 12.7297C12.5817 12.9099 12.3208 13 12.0353 13H2.15301ZM3.14124 11.9524H12.3647L13.0383 9.50794L13.7118 7.06349H4.45888L3.14124 11.9524Z" fill="#FFC701"/>
<path id="Vector_2" d="M9.99529 10.2277V8.5076C9.9952 8.49836 9.99175 8.48939 9.98545 8.48203C9.97916 8.47468 9.97035 8.46933 9.96036 8.4668C9.41943 8.33457 8.5765 8.13393 8.03552 8.0018C8.0286 7.99985 8.02125 7.99948 8.01414 8.00072C8.00702 8.00195 8.00037 8.00477 7.99479 8.00889C7.98334 8.01556 7.97521 8.02655 7.97521 8.04261C7.97685 8.59743 7.97854 9.15206 7.98007 9.70688C7.69486 9.52362 7.16748 9.57025 7.03685 9.88452C6.9547 10.0825 7.01211 10.3104 7.187 10.4503C7.37313 10.5994 7.66726 10.5965 7.8908 10.531C8.10083 10.4694 8.27098 10.305 8.30322 10.1093C8.31941 10.011 8.3067 9.90452 8.3067 9.80577V8.93612C8.65923 9.02336 9.31333 9.17901 9.66602 9.26668C9.6665 9.56161 9.66782 9.86963 9.6685 10.1298C9.48606 10.0085 9.23171 10.0029 9.01751 10.0676C8.73868 10.1516 8.65253 10.3956 8.70845 10.6373C8.84035 11.206 9.9056 11.0558 9.99176 10.5334C10.008 10.4345 9.99529 10.3273 9.99529 10.2279" fill="#FFC701"/>
</g>
</svg>

<svg xmlns="http://www.w3.org/2000/svg" width="16" height="16" fill="none"><g fill="#FFC701"><path d="M2.153 13c-.165 0-.508-.137-.766-.41-.258-.274-.387-.812-.387-.987v-8.38c0-.175.13-.539.387-.812.258-.274.601-.411.766-.411h3.953l1.317 1.397h5.271c.362 0 .754.223.931.41.155.165.387.428.387.812H6.88L5.562 3.222H2.153v8.381l1.581-5.587H15l-1.697 5.989c-.087.302-.25.544-.485.725-.236.18-.497.27-.783.27H2.153Zm.988-1.048h9.224l.673-2.444.674-2.445H4.459l-1.318 4.89Z"/><path d="M9.995 10.228v-1.72a.04.04 0 0 0-.01-.026.049.049 0 0 0-.025-.015c-.54-.132-1.384-.333-1.924-.465a.048.048 0 0 0-.041.007.037.037 0 0 0-.02.034l.005 1.664c-.285-.183-.813-.137-.943.178a.483.483 0 0 0 .15.565c.186.15.48.147.704.081.21-.062.38-.226.412-.422.016-.098.004-.204.004-.303v-.87c.352.087 1.006.243 1.359.33l.002.864c-.182-.122-.436-.127-.65-.062-.28.084-.365.328-.31.57.132.568 1.198.418 1.284-.105.016-.098.003-.206.003-.305"/></g></svg>
